!!!!SEGMENT: pl-wtm--mus-iii-41-806_linowski-jozef--au-revoir-polka.krn
!!!cenid: 18xx:4387
!!!COM: Linowski, Józef
!!!COM-rismID: pe30108296
!!!CDT:
!!!CNT: Polish
!!!OTL: Au revoir. Polka
!!!PDT:
!!!AGN:
!!!SMS-siglum: PL-Wtm
!!!SMS-shelfmark: Mus.III.41.806
!!!SMS-shelfwork: W
!!!SMS-variant:
!!!SMS-altvar:
!!!NIFC-rismSourceID: 1001141547
!!!NIFC-rismChildID: 1001141547
!!!NIFC-islandoraID: pl-wtm:21724
!!!URL-pdf-islandora: https://repozytorium.nifc.pl/islandora/object/pl-wtm:21724/datastream/PDF/view
!!!URL-scan: https://polish.musicsources.pl/pl/lokalizacje/galeria/druki-muzyczne/17662/2 @EN{Scan on Polish Music Sources Website} @PL{Skany w portalu Dziedzictwo Muzyki Polskiej w otwartym dostępie}
!!!ONB-nifc:
!!!AIN: 1 piano
!!!key:
**kern	**kern	**dynam
*part1	*part1	*part1
*staff2	*staff1	*
*	*I"PIANO.	*
*	*I'	*
*	*Ipiano	*
*	*ICklav	*
*	*IGsolo	*
*clefF4	*clefG2	*
*k[b-]	*k[b-]	*
*F:	*F:	*
*M2/4	*M2/4	*
*>[A,A,B,A,C,C,D,C,A,A,B,A]	*>[A,A,B,A,C,C,D,C,A,A,B,A]	*
=1	=1	=1
*>A	*>A	*
.	(8qdd/	.
8FF\L 8F	16cc\LL)	p
!	!LO:N:vis=16	!
.	32r	.
.	(32bn\K	.
8A\J 8c 8f	16cc\)	.
!	!LO:N:vis=16	!
.	32r	.
.	(32aa\JJk	.
8AA\L 8A	8ff\L)	.
8A\J 8c 8f	8ff'\J	.
=2	=2	=2
.	(8qdd/	.
8CC\L 8C	16cc\LL)	.
!	!LO:N:vis=16	!
.	32r	.
.	(32bn\K	.
8G\J 8B- 8c 8e	16cc\)	.
!	!LO:N:vis=16	!
.	32r	.
.	(32bb-\JJk	.
8CC\L 8C	8ee\L)	.
8G\J 8B- 8c 8e	8ee'\J	.
=3	=3	=3
8CC\L 8C	(16cc\LL	<
.	16cc#X\	.
8G\ 8B- 8c 8e	16dd\	.
.	16dd#X\JJ)	.
8G\ 8B- 8c 8e	8ee'\L	.
8G\J 8B- 8c 8e	8bb-'\J	[
!!LO:LB:g=original
=4	=4	=4
8FF\L 8F	(16gg#X\LL	f
.	16aa\J)	.
8A\J 8c 8f	8cc'\J 8ccc	.
8FF\L 8F	8cc'\L 8ccc	.
8A\J 8c 8f	8cc'\J 8ccc	.
=5	=5	=5
.	(8qdd/	mf
8FF\L 8F	16cc\LL)	.
!	!LO:N:vis=16	!
.	32r	.
.	(32bn\K	.
8A\J 8c 8f	16cc\)	.
!	!LO:N:vis=16	!
.	32r	.
.	(32aa\JJk	.
8AA\L 8A	8ff\L)	.
8A\J 8c 8f	8ff'\J	.
=6	=6	=6
.	(8qdd/	.
8CC\L 8C	16cc\LL)	.
!	!LO:N:vis=16	!
.	32r	.
.	(32bn\K	.
8G\J 8B- 8c 8e	16cc\)	.
!	!LO:N:vis=16	!
.	32r	.
.	(32bb-\JJk	.
8CC\L 8C	8ee\L)	.
8G\J 8B- 8c 8e	8ee'\J	.
=7	=7	=7
8CC\L 8C	8cc\L	.
8G\ 8B- 8c 8e	(16bn\L	<
.	16cc\JJ	.
8G\ 8B- 8c 8e	16cc#X\LL	.
.	16dd\	.
8G\J 8B- 8c 8e	16dd#X\	.
.	16ee\JJ)	[
=8	=8	=8
8FF\L 8F	8ff'\L	f
8A\ 8c 8f	8cc'\ 8aa	.
8A\J 8c 8f	8a'\J 8ff	.
!	!LO:TX:b:i:t=Fine.	!
8r	8r	.
!!LO:LB:g=original
=9:|!	=9:|!	=9:|!
*>B	*>B	*
*k[b-e-]	*k[b-e-]	*
8BBB-\L 8BB-	8.dd^^\L 8.bb-	f
8F\J 8B- 8d	.	.
.	16aa\Jk	.
8DD\L 8D	16ccc\LL	.
.	16bb-\	.
8F\J 8B- 8d	16ff\	.
.	16dd\JJ	.
=10	=10	=10
8CC\L 8C	8cc'\L	.
8E-\J 8G 8c	8a'\J 8cc 8aa	.
4E-^^\ 4G 4c	4a^^\ 4cc 4gg	.
=11	=11	=11
.	(8qgg/	.
8FF\L 8F	16ff\LL)	.
!	!LO:N:vis=16	!
.	32r	.
.	(32een\K	.
8F\J 8A 8e-	16ff\)	.
!	!LO:N:vis=16	!
.	32r	.
.	(32aa\JJk	.
8FF\L 8F	8ddd\L)	.
8F\J 8A 8e-	8ccc'\J	.
=12	=12	=12
.	(8qccc/	.
8BB-\L 8B-	16bb-\LL)	.
!	!LO:N:vis=16	!
.	32r	.
.	(32aa\K	.
8F\J 8B- 8d	16bb-\)	.
!	!LO:N:vis=16	!
.	32r	.
.	32ddd\JJk	.
8BB-\L 8B-	8gg^^\L 8bb- 8ggg	.
8F\J 8B- 8d	8ff^^\J 8bb- 8fff	.
!!LO:LB:g=original
=13	=13	=13
8BBB-\L 8BB-	8.dd^^\L 8.bb-	.
8F\J 8d 8f	.	.
.	16aa\Jk	.
8DD\L 8D	16ccc\LL	.
.	16bb-\	.
8F\J 8B- 8d	16ff\	.
.	16dd\JJ	.
=14	=14	=14
8EE-\L 8E-	8cc'\L	.
8E-\J 8G 8c	8a'\J 8cc 8aa	.
4E-^^\ 4G 4c	4a^^\ 4cc 4gg	.
=15	=15	=15
.	(8qgg/	.
8FF\L 8F	16ff\LL)	.
!	!LO:N:vis=16	!
.	32r	.
.	(32een\K	.
8F\J 8A 8e-	16ff\)	.
!	!LO:N:vis=16	!
.	32r	.
.	(32aa\JJk	.
8FF\L 8F	8ddd\L)	.
8F\J 8A 8e-	8ccc'\J	.
=16	=16	=16
8B-\L 8d	4bb-'\	.
8BB-\J	.	.
!LO:TX:b:i:t=D.C.al Fine.	!	!
4BBB-/	4r	.
!!LO:PB:g=original
=17||	=17||	=17||
*>C	*>C	*
*k[]	*k[]	*
*M2/4	*M2/4	*
!	!LO:TX:a:t=TRIO.	!
8CC\L 8C	(16e/LL	mf
.	16g/	.
8E\J 8G 8c	16a/	.
.	16g/JJ)	.
8CC\L 8C	(16e/LL	.
.	16g/	.
8E\J 8G 8c	16dd/	.
.	16cc/JJ)	.
=18	=18	=18
8FF\L 8F	(16d/LL	.
.	16f/	.
8F\J 8A 8d	16a/	.
.	16cc/JJ)	.
8FF\L 8F	8bt/L	.
8F\J 8A 8d	8a/J	.
=19	=19	=19
8GG\L 8G	8g\L	.
8G\J 8B 8d	8f^^\J 8b 8ff	.
4G\ 4B 4d	(16f^^\LL 16b 16ff	.
.	16dd\	.
.	16b\	.
.	16a\JJ)	.
=20	=20	=20
8CC\L 8C	8g\L	.
8E\J 8G 8c	8e^^\J 8g 8cc 8ee	.
4E\ 4G 4c	(16e^^\LL 16g 16cc 16ee	.
.	16cc\	.
.	16a\	.
.	16g\JJ)	.
!!LO:LB:g=original
=21	=21	=21
8C\L	(16e/LL	.
.	16g/	.
8E\J 8G 8c	16a/	.
.	16g/JJ)	.
8C\L	(16d/LL	.
.	16g/	.
8E\J 8G 8c	16dd/	.
.	16cc/JJ)	.
=22	=22	=22
8FF\L 8AA 8F	(16d/LL	.
.	16f/	.
8F\J 8A 8d	16a/	.
.	16cc/JJ)	.
8FF\L 8F	8bt\L	.
8F\J 8A 8d	8a\J	.
=23	=23	=23
8GG\L 8G	8g\L	.
8G\J 8B 8d	8g^^\J 8dd 8ff	.
4G^^\ 4B 4d	(16g^^\LL 16dd 16ff	.
.	16dd\	.
.	16a\	.
.	16b\JJ)	.
=24	=24	=24
8CC\L 8C	8cc\L	.
8C\J 8E 8G 8c	8g\J 8ee	.
!	!LO:TX:b:i:t=Fine.	!
4C\ 4E 4G 4c	4e/ 4cc	.
!!LO:LB:g=original
=25:|!	=25:|!	=25:|!
*>D	*>D	*
*k[b-]	*k[b-]	*
8F\L	(16g#X\LL	mf
.	16a\J	.
8A\J 8c	[8dd\J	.
8F\L	16dd'\LL])	.
.	16cc'\	.
8A\J 8c	16a'\	.
.	16f'\JJ	.
=26	=26	=26
8E\L	(16f#X/LL	.
.	16g/J)	.
8G\J 8B- 8c	8cc/J	.
*	*clefF4	*
4G^\ 4B- 4c	16C'^/LL	.
.	16C'/J	.
.	8C'/J	.
*	*clefG2	*
=27	=27	=27
8C\L	(16b-\LL	.
.	16cc\J	.
8G\J 8B- 8c 8e	[8ee\J	.
8C\L	16ee'\LL])	.
.	16dd'\	.
8G\J 8B- 8c 8e	16b-'\	.
.	16g'\JJ	.
=28	=28	=28
8F\L	(16g#X/LL	.
.	16a/J)	.
8A\J 8c 8f	8cc/J	.
*	*clefF4	*
4A^\ 4c 4f	16F^\LL	.
.	16F'\J	.
.	8F'\J	.
!!LO:LB:g=original
=29	=29	=29
*	*clefG2	*
8FF\L	(16bn\LL	f
.	16cc\J	.
8F\J 8A 8c	[8gg\J	.
8AA\L	16gg'\LL])	.
.	16ff'\	.
8F\J 8A 8c	16cc'\	.
.	16a'\JJ	.
=30	=30	=30
.	(8qa/	.
8BB-\L	(16g/LL)	.
.	16f#X/	.
8D\J 8G 8B-	16g/	.
.	16b-/JJ)	.
8BB-\L	8ee^\L	.
8D\J 8G 8B-	8dd'\J	.
=31	=31	=31
!	!LO:N:vis=16	!
8C\L	8cc'\L	<
!	!LO:N:vis=16	!
8G\J 8B- 8c	8ee^\ 8bb-	.
!	!LO:N:vis=16	!
8C\L	8ff^\ 8bb-	.
!	!LO:N:vis=16	!
8G\J 8B- 8c	8gg^\J 8bb-	[
=32	=32	=32
8F\L	(16gg#X\LL	.
.	16aa\	.
8A\J 8c	16ddd\	.
.	16ccc\JJ)	.
8F\L	8aa'\L	.
8A\J 8c	8ff'\J	.
!!LO:LB:g=original
=33	=33	=33
8F\L	(16g#X\LL	mf
.	16a\J	.
8A\J 8c	[8dd\J	.
8F\L	16dd'\LL])	.
.	16cc'\	.
8A\J 8c	16a'\	.
.	16f'\JJ	.
=34	=34	=34
8E\L	(16f#X/LL	.
.	16g/J)	.
8G\J 8B- 8c	8cc/J	.
*	*clefF4	*
4G^\ 4B- 4c	16C'^/LL	.
.	16C'/J	.
.	8C'/J	.
*	*clefG2	*
=35	=35	=35
8C\L	(16b-\LL	.
.	16cc\J	.
8G\J 8B- 8c 8e	[8ee\J	.
8C\L	16ee'\LL])	.
.	16dd'\	.
8G\J 8B- 8c 8e	16b-'\	.
.	16g'\JJ	.
=36	=36	=36
8F\L	(16g#X/LL	.
.	16a/J)	.
8A\J 8c 8f	8cc/J	.
*	*clefF4	*
4A^\ 4c 4f	16F^\LL	.
.	16F'\J	.
.	8F'\J	.
!!LO:LB:g=original
=37	=37	=37
*	*clefG2	*
8FF\L	(16bn\LL	f
.	16cc\J	.
8F\J 8A 8c	[8gg\J	.
8AA\L	16gg\LL])	.
.	16ff\	.
8F\J 8A 8c	16cc\	.
.	16a\JJ	.
=38	=38	=38
.	(8qa/	.
8BB-\L	(16g/LL)	.
.	16f#X/	.
8D\J 8G 8B-	16g/	.
.	16b-/JJ)	.
8BB-\L	8ee^\L	.
8D\J 8G 8B-	8dd'\J	.
=39	=39	=39
8C\L	(16cc\LL	.
.	16bb-\J)	.
8G\J 8B- 8c	8bb-'\J	.
8C\L	(16dd#X\LL	.
.	16ee\	.
8G\J 8B- 8c	16aa\	.
.	16gg\JJ)	.
=40	=40	=40
8FF\L	8ff'\L	f
8F\ 8A 8c	8cc'\ 8aa	.
8F\J 8A 8c	8a'\J 8ff	.
!LO:TX:b:rj:i:t=D.C.Trio al Fine e poi Polka.	!	!
8r	8r	.
==	==	==
*-	*-	*-
!!!system-decoration: {(s1,s2)}
!!!RDF**kern: < = below
!!!RDF**kern: > = above
!!!ENC: Berenika Jozajtis
!!!END: 2023-07-11
!!!ENC: Marta Chmielewska
!!!END: 2023-07-18
!!!YEC: Copyright 2022 Narodowy Instytut Fryderyka Chopina (https://polishscores.org)
!!!YEM: License CC-BY-4.0 (https://creativecommons.org/licenses/by/4.0)
